X:0391
T:Miss Sackvile's Fancy.
M:2/4
L:1/16
Q:1/4=108
I: :: ::
Z:Jack Campin * www.campin.me.uk * 2009
K:D
A2FG A2dc|BGBe dcBA|defd  B2ef|gefd dcBA|
A2FG A2dc|BGBe dcBA|defd  Bgfe|dfec d4 :|
dfed ecBA|efge fdAF|GBeG  FAdF|EFGA GFED|
dfed ecBA|efge fedc|dfA^c dgfe|fdec d4 :|

